X: 84
T: RATTLING ROARING WILLIE
%R: jig
B: Jean White "100 Popular Hornpipes, Reels, Jigs and Country Dances", Boston 1880 p.35
F: http://www.loc.gov/resource/sm1880.09124.0#seq-1
Z: 2014 John Chambers <jc:trillian.mit.edu>
M: 9/8
L: 1/8
K: A
% - - - - - - - - - - - - - - - - - - - - - - - - - - - - -
f |\
ecA ABA cef | =gfg B^GB d2f |\
ecA ABA ceg | aga cAc e2f/g/ |\
agf ecA cef |
=gfg B^GB d2B |\
ABA c2A cea | cAc BGB A2 :|\
|: f |\
ecA acA ecA | B=GB ^gdB d2e |\
ecA acA ecA |
{b}agf ecA efg |\
agf ecA cef | {a}=gfg B^GB d2B |\
ABA c2A cea | cAc BGB A2 H:|
% - - - - - - - - - - - - - - - - - - - - - - - - - - - - -

%%sep 1 1 500
%%sep 1 1 500
